X: 10241
T: EDINBURGH MUSICAL FUND
C: J. Reinagle
Q: "Lively."
%R: jig
B: W. Hamilton "Universal Tune-Book" Vol. 1 Glasgow 1844 p.24 #1
S: http://imslp.org/wiki/Hamilton's_Universal_Tune-Book_(Various)
Z: 2016 John Chambers <jc:trillian.mit.edu>
M: 6/8
L: 1/8
K: G
% - - - - - - - - - - - - - - - - - - - - - - - - -
d |\
g3 fed | efg d3 | c3 BAG | F>GA DEF |\
G2B Bcd | E2c cde | F2d def | g3 G2 :: D |\
EFG ABc | (d2B) g3 | (e2c) (a2f) | gga b2 D |
EFG ABc | (d2B) g3 | (e2c) (a2f) | ggb g3 :: Bc |\
ddd dgd | BBB BdB | G3 AGA | B>cB B2c |\
ddd dgd | BBB Bga | {a}b2g {b}agf | g3 g2 :|
% - - - - - - - - - - - - - - - - - - - - - - - - -

%%sep 1 1 500
%%sep 1 1 500

